apps/desktop/src/lib/assets/illustrations/empty-stack-placeholder.svg

<svg
			width="100%"
			height="100%"
			viewBox="0 0 300 220"
			fill="none"
			xmlns="http://www.w3.org/2000/svg"
		>
			<rect opacity="0.16" x="135" y="149" width="65" height="67" rx="17" fill="#867E79" />
			<path
				opacity="0.18"
				d="M279.974 172.912C291.527 170.527 299 166.731 299 162.456C299 155.237 277.7 149.386 251.425 149.386C225.149 149.386 203.849 155.237 203.849 162.456C203.849 166.731 211.322 170.527 222.875 172.912C211.322 175.297 203.849 179.093 203.849 183.368C203.849 187.344 210.309 190.904 220.503 193.302C210.309 195.699 203.849 199.26 203.849 203.235C203.849 210.453 225.149 216.305 251.425 216.305C277.7 216.305 299 210.453 299 203.235C299 199.26 292.54 195.699 282.346 193.302C292.54 190.904 299 187.344 299 183.368C299 179.093 291.527 175.297 279.974 172.912Z"
				fill="#B4AFAC"
			/>
			<g opacity="0.5">
				<path
					d="M203.849 182.379C203.849 189.566 225.149 195.391 251.425 195.391C277.7 195.391 299 189.566 299 182.379"
					stroke="#867E79"
					stroke-width="1.2"
				/>
				<path
					d="M203.849 161.467C203.849 168.654 225.149 174.479 251.425 174.479C277.7 174.479 299 168.654 299 161.467"
					stroke="#867E79"
					stroke-width="1.2"
				/>
			</g>
			<path
				opacity="0.3"
				d="M134.839 44.0488C134.839 34.66 142.45 27.0488 151.839 27.0488H193.123C202.512 27.0488 210.123 34.66 210.123 44.0488V57.229C210.123 63.9522 214.085 70.0438 220.231 72.7694L254.387 87.9169C260.533 90.6425 264.495 96.7341 264.495 103.457V128.203C264.495 137.592 256.884 145.203 247.495 145.203H151.839C142.45 145.203 134.839 137.592 134.839 128.203V44.0488Z"
				fill="#8FD6D2"
			/>
			<path
				opacity="0.4"
				fill-rule="evenodd"
				clip-rule="evenodd"
				d="M153.386 42.7329C150.072 42.7329 147.386 45.4192 147.386 48.7329V122.473C147.386 125.787 150.072 128.473 153.386 128.473H190.53C193.844 128.473 196.53 125.787 196.53 122.473V48.7329C196.53 45.4192 193.844 42.7329 190.53 42.7329H153.386ZM186.028 57.2803H165.928L157.888 70.0558H177.988L186.028 57.2803ZM165.928 79.2382H186.028L177.988 92.0137H157.888L165.928 79.2382ZM186.028 101.196H165.928L157.888 113.972H177.988L186.028 101.196Z"
				fill="#3CB4AE"
			/>
			<path
				opacity="0.5"
				d="M213.26 107.561H246.719M213.26 115.403H246.719M213.26 123.245H246.719"
				stroke="#3CB4AE"
				stroke-width="1.2"
			/>
			<path
				opacity="0.4"
				d="M261 8V39M261 39V70M261 39H292M261 39L230 39M261 39L287.847 23.5M261 39L234.153 54.5M261 39L276.5 65.8468M261 39L245.5 12.1532"
				stroke="#867E79"
				stroke-width="1.2"
			/>
			<path
				opacity="0.2"
				d="M174.676 156.568C174.592 173.964 178.341 181.223 192.52 188.953C177.784 188.983 170.516 192.128 160.874 208.078C161.719 189.757 157.723 183.044 143.031 175.693C160.035 175.857 166.801 171.537 174.676 156.568Z"
				fill="#867E79"
			/>
			<rect
				opacity="0.17"
				x="1"
				y="113.835"
				width="129.656"
				height="102.47"
				rx="14"
				fill="#B4AFAC"
			/>
			<path
				opacity="0.5"
				d="M49.1597 141.021L32.3684 165.07L49.1597 189.119M57.1556 189.119L75.5461 141.021M83.542 141.021L100.333 165.07L83.542 189.119"
				stroke="#867E79"
				stroke-width="1.2"
			/>
			<path
				opacity="0.4"
				d="M1.6 53.719C1.6 50.3094 3.27131 47.1163 6.07305 45.1732L59.9011 7.84081C63.4657 5.36859 68.1904 5.36858 71.755 7.84081L125.583 45.1732C128.385 47.1163 130.056 50.3094 130.056 53.719V95.1475C130.056 100.891 125.4 105.548 119.656 105.548H65.8281H12C6.25624 105.548 1.6 100.891 1.6 95.1475V53.719Z"
				stroke="#867E79"
				stroke-width="1.2"
			/>
			<path
				opacity="0.4"
				d="M15.6387 90.8317H48.0527M48.0527 90.8317H116.018M48.0527 90.8317V91.3545M48.0527 90.8317V74.1019M15.6387 74.1019H48.0527M48.0527 74.1019H84.6492M84.6492 74.1019H116.018M84.6492 74.1019V74.6247M84.6492 74.1019V57.3721M15.6387 57.3721H84.6492M84.6492 57.3721H116.018"
				stroke="#867E79"
				stroke-width="1.2"
			/>
		</svg>

<svg xmlns="http://www.w3.org/2000/svg" fill="none" viewBox="0 0 300 220">
  <rect width="65" height="67" x="135" y="149" fill="#867E79" opacity=".16" rx="17"/>
  <path fill="#B4AFAC" d="M279.974 172.912c11.553-2.385 19.026-6.181 19.026-10.456 0-7.219-21.3-13.07-47.575-13.07s-47.576 5.851-47.576 13.07c0 4.275 7.473 8.071 19.026 10.456-11.553 2.385-19.026 6.181-19.026 10.456 0 3.976 6.46 7.536 16.654 9.934-10.194 2.397-16.654 5.958-16.654 9.933 0 7.218 21.3 13.07 47.576 13.07 26.275 0 47.575-5.852 47.575-13.07 0-3.975-6.46-7.536-16.654-9.933 10.194-2.398 16.654-5.958 16.654-9.934 0-4.275-7.473-8.071-19.026-10.456" opacity=".18"/>
  <path stroke="#867E79" stroke-width="1.2" d="M203.849 182.379c0 7.187 21.3 13.012 47.576 13.012 26.275 0 47.575-5.825 47.575-13.012m-95.151-20.912c0 7.187 21.3 13.012 47.576 13.012 26.275 0 47.575-5.825 47.575-13.012" opacity=".5"/>
  <path fill="#8FD6D2" d="M134.839 44.049c0-9.389 7.611-17 17-17h41.284c9.389 0 17 7.611 17 17v13.18a17 17 0 0 0 10.108 15.54l34.156 15.148a17 17 0 0 1 10.108 15.54v24.746c0 9.389-7.611 17-17 17h-95.656c-9.389 0-17-7.611-17-17z" opacity=".3"/>
  <path fill="#3CB4AE" fill-rule="evenodd" d="M153.386 42.733a6 6 0 0 0-6 6v73.74a6 6 0 0 0 6 6h37.144a6 6 0 0 0 6-6v-73.74a6 6 0 0 0-6-6zm32.642 14.547h-20.1l-8.04 12.776h20.1zm-20.1 21.958h20.1l-8.04 12.776h-20.1zm20.1 21.958h-20.1l-8.04 12.776h20.1z" clip-rule="evenodd" opacity=".4"/>
  <path stroke="#3CB4AE" stroke-width="1.2" d="M213.26 107.561h33.459m-33.459 7.842h33.459m-33.459 7.842h33.459" opacity=".5"/>
  <path stroke="#867E79" stroke-width="1.2" d="M261 8v31m0 0v31m0-31h31m-31 0h-31m31 0 26.847-15.5M261 39l-26.847 15.5M261 39l15.5 26.847M261 39l-15.5-26.847" opacity=".4"/>
  <path fill="#867E79" d="M174.676 156.568c-.084 17.396 3.665 24.655 17.844 32.385-14.736.03-22.004 3.175-31.646 19.125.845-18.321-3.151-25.034-17.843-32.385 17.004.164 23.77-4.156 31.645-19.125" opacity=".2"/>
  <rect width="129.656" height="102.47" x="1" y="113.835" fill="#B4AFAC" opacity=".17" rx="14"/>
  <path stroke="#867E79" stroke-width="1.2" d="M49.16 141.021 32.368 165.07l16.792 24.049m7.996 0 18.39-48.098m7.996 0 16.791 24.049-16.791 24.049" opacity=".5"/>
  <path stroke="#867E79" stroke-width="1.2" d="M1.6 53.719a10.4 10.4 0 0 1 4.473-8.546L59.901 7.841a10.4 10.4 0 0 1 11.854 0l53.828 37.332a10.4 10.4 0 0 1 4.473 8.546v41.428c0 5.744-4.656 10.401-10.4 10.401H12c-5.744 0-10.4-4.657-10.4-10.4zm14.039 37.113h32.414m0 0h67.965m-67.965 0v.523m0-.523v-16.73m-32.414 0h32.414m0 0h36.596m0 0h31.369m-31.369 0v.523m0-.523v-16.73m-69.01 0h69.01m0 0h31.369" opacity=".4"/>
</svg>
